Icons/Dark/WaterSourceMove.svg

<svg xmlns="http://www.w3.org/2000/svg" xml:space="preserve" fill-rule="evenodd" stroke-linejoin="round" stroke-miterlimit="2" clip-rule="evenodd" viewBox="0 0 64 64">
  <g id="grey">
    <path fill="#575757" fill-rule="nonzero" d="M31.151 19.385c9.654-.635 17.859 3.93 18.328 10.201.47 6.272-6.979 11.866-16.631 12.5-9.653.635-17.859-3.931-18.327-10.2-.468-6.268 6.977-11.864 16.63-12.501Z"/>
    <path fill="#010001" fill-rule="nonzero" d="M31.151 21.913c9.654-.635 17.859 3.93 18.328 10.201.47 6.272-6.979 11.866-16.631 12.501-9.653.634-17.859-3.932-18.327-10.201-.468-6.269 6.977-11.864 16.63-12.501Z"/>
    <path fill="#575757" fill-rule="nonzero" d="M31.296 21.842c8.172-.538 15.085 2.978 15.45 7.855.365 4.878-5.962 9.264-14.13 9.802-8.168.538-15.085-2.979-15.45-7.855-.364-4.876 5.962-9.264 14.13-9.802Z"/>
    <path fill="#575757" fill-rule="nonzero" d="M31.234 20.525c8.867-.61 16.367 3.374 16.763 8.902.396 5.527-6.468 10.498-15.331 11.107-8.862.61-16.367-3.377-16.763-8.901-.395-5.526 6.468-10.498 15.331-11.108Z"/>
    <path fill="#2c2e2e" d="M31.151 19.385c9.654-.635 17.859 3.93 18.328 10.201.47 6.272-6.979 11.866-16.631 12.5-9.653.635-17.859-3.931-18.327-10.2-.468-6.268 6.977-11.864 16.63-12.501Zm.098 1.478c-5.381.355-10.041 2.324-12.8 5.135-1.657 1.689-2.609 3.679-2.452 5.778.158 2.107 1.4 3.957 3.3 5.418 3.154 2.426 8.067 3.77 13.454 3.415 5.38-.354 10.041-2.322 12.8-5.133 1.658-1.689 2.609-3.679 2.452-5.779-.158-2.108-1.401-3.959-3.3-5.42-3.154-2.426-8.067-3.769-13.454-3.414Z"/>
  </g>
  <g id="white">
    <path fill="#ebebeb" d="M48.313 43.147v-6.621h-6.297V22.837h6.297v-5.948l13.238 12.87-13.238 13.388Zm-32.625 0L2.45 29.759l13.238-12.87v5.948h6.297v13.688h-6.297v6.622Z"/>
  </g>
</svg>

<?xml version="1.0" encoding="UTF-8" standalone="no"?><!DOCTYPE svg PUBLIC "-//W3C//DTD SVG 1.1//EN" "http://www.w3.org/Graphics/SVG/1.1/DTD/svg11.dtd"><svg width="100%" height="100%" viewBox="0 0 64 64" version="1.1" xmlns="http://www.w3.org/2000/svg" xmlns:xlink="http://www.w3.org/1999/xlink" xml:space="preserve" xmlns:serif="http://www.serif.com/" style="fill-rule:evenodd;clip-rule:evenodd;stroke-linejoin:round;stroke-miterlimit:2;"><g id="grey"><path d="M31.151,19.385C40.805,18.75 49.01,23.315 49.479,29.586C49.949,35.858 42.5,41.452 32.848,42.086C23.195,42.721 14.989,38.155 14.521,31.886C14.053,25.618 21.498,20.022 31.151,19.385Z" style="fill:#575757;fill-rule:nonzero;"/><path d="M31.151,21.913C40.805,21.278 49.01,25.843 49.479,32.114C49.949,38.386 42.5,43.98 32.848,44.615C23.195,45.249 14.989,40.683 14.521,34.414C14.053,28.145 21.498,22.55 31.151,21.913Z" style="fill:#010001;fill-rule:nonzero;"/><path d="M31.296,21.842C39.468,21.304 46.381,24.82 46.746,29.697C47.111,34.575 40.784,38.961 32.616,39.499C24.448,40.037 17.531,36.52 17.166,31.644C16.802,26.768 23.128,22.38 31.296,21.842Z" style="fill:#575757;fill-rule:nonzero;"/><path d="M31.234,20.525C40.101,19.915 47.601,23.899 47.997,29.427C48.393,34.954 41.529,39.925 32.666,40.534C23.804,41.144 16.299,37.157 15.903,31.633C15.508,26.107 22.371,21.135 31.234,20.525Z" style="fill:#575757;fill-rule:nonzero;"/><path d="M31.151,19.385C40.805,18.75 49.01,23.315 49.479,29.586C49.949,35.858 42.5,41.452 32.848,42.086C23.195,42.721 14.989,38.155 14.521,31.886C14.053,25.618 21.498,20.022 31.151,19.385ZM31.249,20.863C25.868,21.218 21.208,23.187 18.449,25.998C16.792,27.687 15.84,29.677 15.997,31.776C16.155,33.883 17.397,35.733 19.297,37.194C22.451,39.62 27.364,40.964 32.751,40.609C38.131,40.255 42.792,38.287 45.551,35.476C47.209,33.787 48.16,31.797 48.003,29.697C47.845,27.589 46.602,25.738 44.703,24.277C41.549,21.851 36.636,20.508 31.249,20.863Z" style="fill:#2c2e2e;"/><path d="M48.313,43.147L48.313,36.526L42.016,36.526L42.016,22.837L48.313,22.837L48.313,16.889L61.551,29.759L48.313,43.147ZM15.688,43.147L2.45,29.759L15.688,16.889L15.688,22.837L21.985,22.837L21.985,36.525L15.688,36.525L15.688,43.147Z" style="fill:#d4d4d4;"/></g></svg>
